icons/supersonic.svg

<?xml version="1.0" encoding="UTF-8" standalone="no"?>
<svg width="256px" height="318px" viewBox="0 0 256 318" version="1.1" xmlns="http://www.w3.org/2000/svg" xmlns:xlink="http://www.w3.org/1999/xlink" preserveAspectRatio="xMidYMid">
	<g>
		<path d="M244.219469,254.173173 L10.4212389,152.226271 C4.07787611,149.507687 0,143.164324 0,136.367864 L0,81.5430848 C0,71.8014918 9.96814159,65.2315803 19.0300885,69.0829078 L245.352212,167.858129 C251.695575,170.576713 255.773451,176.920076 255.773451,183.716536 L255.773451,246.470518 C255.773451,252.360784 249.656637,256.43866 244.219469,254.173173" fill="#313949"></path>
		<path d="M253.961062,50.2371681 L148.389381,4.24778761 C135.249558,-1.4159292 120.070796,-1.4159292 106.930973,4.24778761 L18.3504425,42.9876106 C7.24955752,47.7451327 0,58.8460177 0,70.8530973 L0,134.739823 C0,138.817699 0.679646018,140.630088 1.81238938,142.669027 C2.71858407,138.59115 6.5699115,134.513274 9.74159292,133.153982 L111.00885,87.3911504 C121.656637,82.6336283 134.116814,82.6336283 144.764602,87.3911504 L251.922124,135.646018 C253.961062,136.552212 256,135.19292 256,132.927434 L256,52.7292035 C255.773451,51.5964602 255.093805,50.6902655 253.961062,50.2371681" fill="#FB5152"></path>
		<path d="M1.81238938,267.100885 L107.384071,313.090265 C120.523894,318.753982 135.702655,318.753982 148.842478,313.090265 L237.423009,274.350442 C248.523894,269.59292 255.773451,258.492035 255.773451,246.258407 L255.773451,182.371681 C255.773451,178.293805 255.093805,176.481416 253.961062,174.442478 C253.054867,178.520354 249.20354,182.59823 246.031858,183.957522 L144.99115,229.720354 C134.343363,234.477876 121.883186,234.477876 111.235398,229.720354 L4.30442478,181.692035 C2.26548673,180.785841 0,182.145133 0,184.410619 L0,264.382301 C0,265.515044 0.679646018,266.647788 1.81238938,267.100885" fill="#FB5152"></path>
	</g>
</svg>

<svg xmlns="http://www.w3.org/2000/svg" viewBox="0 0 256 317.338">
  <path fill="#313949" d="M244.22 254.173 10.42 152.226C4.078 149.508 0 143.164 0 136.368V81.543c0-9.742 9.968-16.311 19.03-12.46l226.322 98.775c6.344 2.719 10.421 9.062 10.421 15.859v62.754c0 5.89-6.116 9.968-11.554 7.702"/>
  <path fill="#fb5152" d="M253.961 50.237 148.39 4.247c-13.14-5.663-28.318-5.663-41.458 0l-88.58 38.74C7.25 47.746 0 58.847 0 70.854v63.887c0 4.078.68 5.89 1.812 7.929.907-4.078 4.758-8.156 7.93-9.515l101.267-45.763c10.648-4.757 23.108-4.757 33.756 0l107.157 48.255c2.04.906 4.078-.453 4.078-2.719V52.73c-.227-1.133-.906-2.039-2.039-2.492M1.812 267.1l105.572 45.99c13.14 5.664 28.319 5.664 41.458 0l88.581-38.74c11.1-4.757 18.35-15.858 18.35-28.092v-63.886c0-4.078-.68-5.89-1.812-7.93-.906 4.078-4.757 8.156-7.93 9.516l-101.04 45.762c-10.648 4.758-23.108 4.758-33.756 0L4.305 181.692c-2.04-.906-4.305.453-4.305 2.719v79.971c0 1.133.68 2.266 1.812 2.719"/>
</svg>
